X:1000
T:Anglais efter Jöns Persson
T:(SvL Skåne nr. 72)
R:Anglais
Z:Patrik Månsson, 2009-01-12
O:Roalöv, Skåne
S:efter Jöns Persson
B:Svenska Låtar Skåne
M:C
L:1/8
K:F
|: FA | c2 Ac f2 cf | a2 (gf) edcB | Acfa gbeg | (fa)ge f2 :|
|: AB | c2 (Ac) fedc | Bcdc BAGF | EGce gecB | AcBG F2 :|

(:musicend:)

(:music:)
